X: 31227
T: Paddy Fahey's
R: jig
M: 6/8
K: Dmajor
|:DFA d2d|Afe dAF|DGB g2e|fed cAF|
DFA d2d|Afe dAF|G2E A,CE|1 FDD D2A,:|2 FDD D2 g||
|:afd d2c|Bdg gfg|Adf fed|cde efg|
f/g/af g2a|fed efg|efd gec|1 edc dfg:|2 edc dAF||

